Sources/FrostedUI/Resources/Icons.xcassets/arrowFatUp20.imageset/arrow-fat-up-20.svg

<svg width="20" height="20" viewBox="0 0 20 20" fill="none" xmlns="http://www.w3.org/2000/svg" data-fui-icon="true">
  <path
    d="M8.80017 1.28522C9.43182 0.552046 10.568 0.552191 11.1996 1.28522L16.433 7.36334C17.0842 8.11955 16.5473 9.29205 15.5492 9.29205H13.4584V16.8751C13.4583 17.7495 12.7488 18.4581 11.8744 18.4581H8.12439C7.25019 18.4578 6.54142 17.7493 6.54138 16.8751V9.29205H4.44958C3.45197 9.29157 2.91473 8.11943 3.5658 7.36334L8.80017 1.28522ZM10.0629 2.26471C10.0295 2.22619 9.97001 2.22628 9.93689 2.26471L5.17712 7.79205H7.29138C7.70554 7.79205 8.04129 8.12792 8.04138 8.54205V16.8751C8.04142 16.9209 8.07861 16.9578 8.12439 16.9581H11.8744C11.9204 16.9581 11.9583 16.9211 11.9584 16.8751V8.54205C11.9585 8.12796 12.2943 7.79213 12.7084 7.79205H14.8226L10.0629 2.26471Z"
    fill="currentColor"
  />
</svg>

<svg xmlns="http://www.w3.org/2000/svg" width="20" height="20" fill="none" data-fui-icon="true" viewBox="0 0 20 20"><path fill="currentColor" d="M8.8 1.285a1.584 1.584 0 0 1 2.4 0l5.233 6.078c.651.757.114 1.929-.884 1.929h-2.09v7.583c0 .875-.71 1.583-1.585 1.583h-3.75a1.583 1.583 0 0 1-1.583-1.583V9.292H4.45c-.998 0-1.535-1.173-.884-1.929zm1.263.98a.083.083 0 0 0-.126 0l-4.76 5.527h2.114a.75.75 0 0 1 .75.75v8.333c0 .046.038.083.083.083h3.75a.084.084 0 0 0 .084-.083V8.542a.75.75 0 0 1 .75-.75h2.115z"/></svg>
